src/24/actions/zoom-previous.svg

<svg xmlns="http://www.w3.org/2000/svg" viewBox="0 0 24 24">
  <defs id="defs3051">
    <style type="text/css" id="current-color-scheme">
      .ColorScheme-Text {
        color:#5d656b;
      }
      </style>
  </defs>
 <path style="fill:currentColor;fill-opacity:1;stroke:none" 
     d="M 4 4 L 4 5 L 4 7 L 5 7 L 5 5 L 7 5 L 7 4 L 5 4 L 4 4 z M 17 4 L 17 5 L 19 5 L 19 7 L 20 7 L 20 5 L 20 4 L 19 4 L 17 4 z M 13.285156 8.3242188 L 11.482422 10.125 L 9.6074219 12 L 11.482422 13.875 L 13.285156 15.675781 L 13.992188 14.96875 L 12.189453 13.167969 L 11.021484 12 L 12.189453 10.832031 L 13.992188 9.03125 L 13.285156 8.3242188 z M 4 17 L 4 19 L 4 20 L 7 20 L 7 19 L 5 19 L 5 17 L 4 17 z M 19 17 L 19 19 L 17 19 L 17 20 L 20 20 L 20 17 L 19 17 z "
     class="ColorScheme-Text"
     />
</svg>

<svg xmlns="http://www.w3.org/2000/svg" viewBox="0 0 24 24"><path d="M4 4v3h1V5h2V4H4zm13 0v1h2v2h1V4h-3zm-3.715 4.324l-1.803 1.801L9.607 12l1.875 1.875 1.803 1.8.707-.706-1.803-1.801L11.021 12l1.168-1.168 1.803-1.8-.707-.708zM4 17v3h3v-1H5v-2H4zm15 0v2h-2v1h3v-3h-1z" fill="currentColor" color="#5d656b"/></svg>
